X:0912
T:What will I do gin my Hoggie die.
M:C
L:1/8
Q:1/4=132 "Lively"
I: :: :: || ||
N:bar 2 printed |f2f2 e2d2e2|
N:bar 4 printed |Te4 EDE|
N:bar 20 printed |F2A2 A2d2e2|
N:bar 28 dotted in an odd way, no tails or white note, looks like |Te3 E3 D2|
I: :: :: || ||
Z:Jack Campin * www.campin.me.uk * 2009
K:D
DE|F2A2 A2de|f2 f2     e2  de    | f2  f2   e2 (de/f/)|Te4 E2
DE|F2A2 A2de|f2 f2     e2  de    | fe``dB   dB``AF    | E4 D2||
DE|F2A2 A2FA|BA`FA     B2  FA    | Bc``dc   BA``FA    |=c4 E2
AG|F2ED A2A2|B2(Bc/d/) c2  BA    |(Bc)(de) (fg)(fe)   |Td4 D2||
DE|F2A2 A2de|f2 f2     e2 (de/f/)| g3   a  (ba)(gf)   |Te4 E2
DE|F2A2 A2de|f2 f2     e2  de    |(fe)(dB) (dB)(AF)   |TE4 D2||
D2|F2A2 A2d2|B3  d     A3   d    | B2  cd   A2  gf    |Te4 E2
D2|F2A2 A2FA|B3  d     A3   d    | G3   d   F2  dF    |TE4 D2|]

